X: 24036
T: London Lasses, The
R: reel
M: 4/4
K: Gmajor
"G"~G3B DGBd|eaag e~g3|~G3B DGBd|egdB AGFA|
~G3B DGBd|eaag e~g3|"C"bgag egfa|gedB AGFA|
"G"~G3B DGBd|eaag e~g3|~g3d e~g3|egdB AGFA|
~G3B DGBd|eaag e~g3|"C"bgag egfa|gedB AGFA||
"G"~g3g edBe|d~G3B GB/c/d|"C"gGfG eged|B~G3 B~A3|
"G"gaag fgge|d~B3d ega|"C"bgag egfa|gedB AGFA|
"G"g3g edBe|d~G3B GB/c/d|"C"gGfG eged|B~G3 B~A3|
"G"gaag fgge|d~B3d ega|"C"bgag egfa|gedB AGFA||

